logos/remix.svg

<?xml version="1.0" encoding="UTF-8"?>
<svg width="512px" height="128px" viewBox="0 0 512 128" version="1.1" xmlns="http://www.w3.org/2000/svg" xmlns:xlink="http://www.w3.org/1999/xlink" preserveAspectRatio="xMidYMid">
    <title>Remix</title>
    <g>
        <path d="M404.471753,38.3347114 L404.471753,127.828188 L372.208193,127.828188 L372.208193,38.3347114 L404.471753,38.3347114 Z M446.078454,38.1587758 L460.815807,59.4291114 L475.952451,38.1587758 L509.211834,38.1587758 L476.947587,80.6987597 L512,127.65294 L476.350368,127.65294 L458.625546,103.373144 L440.900038,127.65294 L407.639968,127.65294 L442.493079,82.1034953 L410.428821,38.1587758 L446.078454,38.1587758 Z M329.988467,35.3321235 C354.240464,35.3321235 361.509688,52.0488354 361.652647,70.4904441 L361.654808,71.0497933 L361.654808,127.233718 L329.391248,127.233718 L329.390586,79.3127251 L329.390586,79.3127251 L329.385188,78.592273 L329.385188,78.592273 L329.374144,77.8858313 L329.374144,77.8858313 L329.357197,77.1934289 L329.357197,77.1934289 L329.334088,76.5150945 C329.329709,76.4032127 329.325062,76.2919183 329.320143,76.1812119 L329.287308,75.5240339 C329.275243,75.3073296 329.262043,75.0929821 329.247666,74.8809961 L329.200959,74.2521275 C329.192572,74.1484984 329.183879,74.0454609 329.174876,73.9430156 L329.117088,73.3354548 L329.117088,73.3354548 L329.051589,72.7421353 C328.137302,65.0239768 325.150926,61.016655 317.441374,61.016655 C308.299838,61.016655 304.338671,67.3956648 303.356005,77.5656345 L303.291559,78.2897774 C303.172446,79.7505212 303.111664,81.2856081 303.103017,82.887756 L303.101938,127.233718 L270.838379,127.233718 L270.838379,79.678196 L270.83547,78.9507495 C270.834494,78.830674 270.833269,78.7111816 270.83179,78.592273 L270.819829,77.8858313 L270.819829,77.8858313 L270.801534,77.1934289 L270.801534,77.1934289 L270.776666,76.5150945 L270.776666,76.5150945 L270.744986,75.8508572 C270.739125,75.7413273 270.732971,75.632386 270.726517,75.5240339 L270.684171,74.8809961 L270.684171,74.8809961 L270.634416,74.2521275 L270.634416,74.2521275 L270.577012,73.6374568 C269.739144,65.3341093 266.691522,61.016655 258.689203,61.016655 C248.23931,61.016655 244.426123,69.6700356 244.350905,82.887756 L244.349766,127.233718 L212.086207,127.233718 L212.086207,37.7402416 L244.349766,37.7402416 L244.349766,51.1841933 C249.129579,41.3524188 258.689203,35.3321235 272.032816,35.3321235 C287.766679,35.3321235 295.931877,42.5557906 299.716553,52.9902819 C304.496365,42.9571436 315.051812,35.3321235 329.988467,35.3321235 Z M159.568752,32.5054711 C188.94738,32.5054711 204.661252,52.5657948 204.972592,76.5256631 L204.97731,77.2528966 L204.97731,86.2819651 L142.640451,86.2819651 C143.436972,97.3184859 151.403554,102.535388 161.162481,102.535388 C169.811777,102.535388 175.356539,99.6035877 178.371679,92.7745313 L178.489385,92.5029369 L204.380091,94.9103678 C199.799581,115.377997 183.468499,126.815184 159.967356,126.815184 C131.487785,126.815184 111.173412,109.558379 111.173412,81.0650631 C111.173412,52.7724242 131.885702,32.5054711 159.568752,32.5054711 Z M60.3651436,-7.10542736e-15 C92.9063517,-7.10542736e-15 109.077305,15.4878282 109.077305,40.2280805 C109.077305,58.7329289 97.697847,70.8010094 82.3254765,72.8125852 C95.3020993,75.4275651 102.887946,82.8697772 104.285809,97.5528376 L104.488101,100.25306 L104.488101,100.25306 L104.664662,102.777325 L104.664662,102.777325 L104.817244,105.138638 L104.817244,105.138638 L104.92322,106.919106 L104.92322,106.919106 L105.037049,109.019888 L105.037049,109.019888 L105.096076,110.21879 L105.096076,110.21879 L105.180217,112.123367 L105.180217,112.123367 L105.24808,113.922226 L105.24808,113.922226 L105.281711,114.956207 L105.281711,114.956207 L105.327168,116.612973 L105.327168,116.612973 L105.366387,118.507329 L105.366387,118.507329 L105.380609,119.422706 L105.380609,119.422706 L105.406256,122.075345 L105.406256,122.075345 L105.414499,124.843361 L105.414499,124.843361 L105.414958,126.498362 L105.414958,126.498362 L71.8573101,126.498362 C71.8573101,125.80002 71.8626117,125.127302 71.8709428,124.46755 L71.8909712,123.161581 L71.8909712,123.161581 L71.9490166,119.998381 L71.9636968,118.937932 L71.9636968,118.937932 L71.9730848,117.840799 C71.9741016,117.654287 71.9748178,117.465796 71.9751932,117.275103 L71.9736208,116.211756 L71.9736208,116.211756 L71.9638449,115.096602 L71.9638449,115.096602 L71.9502601,114.221359 L71.9502601,114.221359 L71.9226506,112.996027 L71.9226506,112.996027 L71.8828634,111.696587 L71.8828634,111.696587 L71.8294532,110.314928 L71.8294532,110.314928 L71.7609748,108.842941 L71.7609748,108.842941 L71.7206334,108.07054 L71.7206334,108.07054 L71.6519855,106.863578 L71.6519855,106.863578 L71.5730327,105.595543 L71.5730327,105.595543 L71.4506787,103.803914 L71.4506787,103.803914 L71.3453101,102.38007 C70.4172774,88.9120919 64.9997335,85.1857532 55.0926782,84.7300589 L54.4472844,84.7051328 L54.4472844,84.7051328 L53.7894327,84.6888961 C53.5680725,84.6848892 53.344636,84.6822663 53.1191231,84.6809628 L0,84.6799893 L0,58.3308886 L54.3764617,58.3308886 C68.7502604,58.3308886 75.9368161,53.9242523 75.9368161,42.2582121 C75.9368161,32.0003436 68.7502604,25.7834953 54.3764617,25.7834953 L0,25.7834953 L0,-7.10542736e-15 L60.3651436,-7.10542736e-15 Z M35.4826309,106.855431 C39.8854185,106.855431 41.7275178,109.300069 42.38376,111.639991 L42.4542958,111.909373 C42.4652008,111.954144 42.4756867,111.99884 42.4857634,112.043443 L42.5413912,112.309798 L42.5413912,112.309798 L42.5876669,112.573048 C42.5946263,112.616616 42.6012155,112.660018 42.6074444,112.703237 L42.6405721,112.960198 L42.6405721,112.960198 L42.6655211,113.211877 C42.6690238,113.253336 42.6722053,113.294538 42.6750753,113.335465 L42.6886362,113.577592 C42.6902996,113.617349 42.691671,113.656796 42.6927604,113.695913 L42.6959893,113.926529 L42.6959893,113.926529 L42.6959893,126.498362 L0,126.498362 L0,106.855431 L35.4826309,106.855431 Z M159.170835,55.7818846 C151.093042,55.7818846 146.528727,59.6883973 144.344571,65.4066572 L144.181234,65.8500615 L144.181234,65.8500615 L144.027172,66.3004008 C143.877709,66.7541371 143.741986,67.2179581 143.619487,67.6909104 L143.501377,68.1668711 C143.42555,68.4861604 143.355525,68.8093667 143.291147,69.1362076 L143.198797,69.6291597 C143.184105,69.7117609 143.169761,69.7945804 143.155763,69.8776139 L143.075907,70.3783465 L143.075907,70.3783465 L143.039055,70.6305718 L174.306792,70.6305718 C173.908188,62.6041987 168.730459,55.7818846 159.170835,55.7818846 Z M404.671055,1.41298255 L404.671055,29.9069852 L372.008891,29.9069852 L372.008891,1.41298255 L404.671055,1.41298255 Z" fill="#121212"></path>
    </g>
</svg>

<svg preserveAspectRatio="xMidYMid" viewBox="0 0 512 128" xmlns="http://www.w3.org/2000/svg">
  <path fill="#121212" d="M404.472 38.335v89.493h-32.264V38.335h32.264Zm41.606-.176 14.738 21.27 15.136-21.27h33.26l-32.264 42.54L512 127.653h-35.65l-17.724-24.28-17.726 24.28h-33.26l34.853-45.55L410.43 38.16h35.65Zm-116.09-2.827c24.252 0 31.522 16.717 31.665 35.158l.002.56v56.184H329.39V79.313l-.006-.72-.01-.707-.018-.693-.023-.678a63.244 63.244 0 0 0-.014-.334l-.033-.657a53.255 53.255 0 0 0-.04-.643l-.046-.629a44.966 44.966 0 0 0-.026-.309l-.058-.608-.065-.593c-.915-7.718-3.901-11.725-11.61-11.725-9.142 0-13.103 6.379-14.086 16.549l-.064.724c-.12 1.46-.18 2.996-.189 4.598l-.001 44.346h-32.264V79.678l-.003-.727c0-.12-.002-.24-.003-.359l-.012-.706-.018-.693-.025-.678-.032-.664a54.24 54.24 0 0 0-.018-.327l-.043-.643-.05-.629-.057-.615c-.838-8.303-3.885-12.62-11.888-12.62-10.45 0-14.263 8.653-14.338 21.87l-.001 44.347h-32.264V37.74h32.264v13.444c4.78-9.832 14.34-15.852 27.683-15.852 15.734 0 23.899 7.224 27.684 17.658 4.78-10.033 15.335-17.658 30.271-17.658Zm-170.42-2.827c29.38 0 45.093 20.06 45.405 44.02l.004.728v9.029H142.64c.797 11.036 8.764 16.253 18.522 16.253 8.65 0 14.195-2.931 17.21-9.76l.117-.272 25.891 2.407c-4.58 20.468-20.912 31.905-44.413 31.905-28.48 0-48.794-17.257-48.794-45.75 0-28.293 20.713-48.56 48.396-48.56ZM60.366 0c32.541 0 48.712 15.488 48.712 40.228 0 18.505-11.38 30.573-26.752 32.585 12.977 2.615 20.563 10.057 21.96 24.74l.203 2.7.177 2.524.152 2.362.106 1.78.114 2.1.06 1.2.083 1.904.068 1.8.034 1.033.045 1.657.04 1.894.014.916.025 2.652.008 2.768.001 1.655H71.857c0-.698.006-1.37.014-2.03l.02-1.306.058-3.164.015-1.06.01-1.097.001-.566-.001-1.063-.01-1.115-.014-.876-.027-1.225-.04-1.3-.054-1.381-.068-1.472-.04-.772-.069-1.207-.079-1.268-.122-1.792-.106-1.424C70.417 88.912 65 85.186 55.093 84.73l-.646-.025-.658-.016a54.423 54.423 0 0 0-.67-.008L0 84.68V58.33h54.376c14.374 0 21.56-4.406 21.56-16.072 0-10.258-7.186-16.475-21.56-16.475H0V0h60.365ZM35.483 106.855c4.402 0 6.245 2.445 6.9 4.785l.071.27.032.133.055.267.047.263.02.13.033.257.025.252.01.123.013.243.004.118.003.23v12.572H0v-19.643h35.483ZM159.17 55.782c-8.078 0-12.642 3.906-14.826 9.625l-.164.443-.154.45c-.15.454-.285.918-.408 1.39l-.118.477c-.075.32-.145.642-.21.97l-.092.492a10.8 10.8 0 0 0-.043.249l-.08.5-.037.253h31.268c-.399-8.027-5.577-14.85-15.136-14.85Zm245.5-54.369v28.494h-32.66V1.413h32.662Z"/>
</svg>
